X: 36052
T: Scartaglen, The
R: reel
M: 4/4
K: Dmajor
D2FA dBBd|A2FD EB,~B,2|D2FA dBBd|1 AFDF EDB,C:|2 AFDF E2D2||
Adfd edfd|Adfd eB~B2|Adfd edfd|AFDF E2D2|
Adfd edfd|Adfd eB~B2|~g3e ~f3e|dBAF E2FE||

